X:1
T:Sinfonia in D Major (3-part Invention)
T:Sinfonia No 4 in D Minor (3-part Invention)
T:J.S. Bach
C:J.S. Bach
%%score { ( 1 3 ) | 2 }
L:1/8
Q:1/4=84
M:4/4
K:F
V:1 treble nm="Piano" snm="Pno."
V:3 treble 
V:2 bass 
V:1
"^Allegretto moderato.  (.)"!p! z/ (d/^c/d/ A!>!f-"_cresc." f/)(e/d/e/ A!>!g- | %1
 g/)f/e/d/ a2- a/^g/^f/g/ g>a | a2- a/d/^c/d/ =g2- g/^c/=B/c/ |!p! f3 a g2- g/f/e/f/ | %4
 d2!f! z/ b/a/b/ e2- e/a/g/a/ | d2- d/d/e/f/ g2- g/f/e/d/ | c4- c/"_dim."B/A/B/ G/d/c/d/ | %7
 G/B/A/B/- B/c/B/c/!p! A2 z f- | f<"_cresc."e z g- g/f/e/f/ ca- | a/g/f/g/ c!f!b- b<a- a2- | %10
 a/d/^c/d/ g2- g/f/e/g/ f2- | f/e/d/e/ Ad-"_dim." d/=c/=B/c/ ^FB- | %12
 =B/A/^G/A/- A/G/^F/G/!p! z/ (A/G/A/ .E!>!c- | c/)(=B/A/B/ Ed-"_cresc." d/)c/=B/c/ _e2- | %14
 e<d z ^f!f! g4- | g/^f/b/a/ f2 g/"_poco dim."d/c/d/ G=f- | f/e/d/e/ cb- b/!mf!a/g/b/ a/g/f/e/ | %17
 d2- d/f/e/d/ ^c2- c/A/d/=c/ | B4- B/A/^G/=B/ A/=G/F/G/ |"_cresc." F2- F/A/G/A/ _B=Bc^c | %20
!f! d4- d3 d |"_dim. poco a poco" ^c=c=B_B A2 ^G=G | ^F=F E2!p! D4 |] %23
V:2
 (D,E,F,D,) (A,=B,^CA,) | D2- D/!f!=C/=B,/A,/ E2 E,2 | A,,2 z2 z4 | %3
 z/ (D,/^C,/D,/ A,,!>!F,- F,/)(E,/D,/E,/ A,,!>!G,- | G,/)F,/E,/D,/ B,2- B,/E,/D,/C,/ A,2- | %5
 A,/D,/C,/D,/ G,,F,- F,/E,/D,/E,/ C,B,- | B,/A,/G,/A,/ F,_E DCB,A, | B,G,CC, (F,,G,,A,,F,,) | %8
 (C,D,E,C,) (F,G,A,F,) | (CDEC .F/)C/B,/C/ F,!>!F- | F/B,/A,/B,/ E,!>!E- E/A,/G,/A,/ D,D- | %11
 DC- C/=B,/A,/B,/ ^G,A,- A,/G,/^F,/G,/ | A,^D,E,E,, (A,,=B,,C,A,,) | %13
 (E,^F,^G,E,) A,2- A,/=G,/^F,/G,/ | D,C,_B,,A,, !wedge!G,,/(G,/^F,/G,/ D,B,- | %15
 B,/)(A,/G,/A,/ D,!>!C- C/)B,/A,/B,/ C/B,/A,/G,/ | (CDEC) F,2 z F, | B,A,G,B, A,G,F,D, | %18
 G,F,G,=E, A,=B,^CA, | D/D,/^C,/D,/ A,,F,- F,/E,/D,/E,/ A,,G,- | %20
 G,/^F,/E,/F,/ D,C B,A, B,/A,/G,/A,/ | G,/^F,/E,/F,/ G,/=F,/_E,/D,/ ^C,D,- D,/C,/=B,,/C,/ | %22
 D,^G,, A,,2 D,,4 |] %23
V:3
 x8 | z/ (A/^G/A/ E=c- c/)(=B/A/B/ Ed- | d/)"_dim."c/=B/c/ f2- f/B/A/B/ e2- | %3
 eA"_cresc." d/e/d/=c/ =B>^c c2 | .d/d/^c/d/ G2- G/=c/B/c/ F2- | F/B/A/c/ B2- B/c/B/A/ B/A/G/F/ | %6
 EB- B/A/G/A/ F4- | F2 E2 z/ F/E/F/ CA- | A/G/F/G/ CB- B<A z f- | f<e z g- g<f- f/e/d/c/ | %10
 B2- B/A/B/G/ ^c2 d/B/A/B/ | ^GA^F=F E2 ^D=D | ^C=C =B,2 A,2 z2 | z4 z/ E/^D/E/ A,G- | %14
 G/(^F/=E/F/ Dc- c/)_B/A/B/ c/d/c/d/ | _e2- e/d/e/c/ d/ z/ z z2 | z4 z/ F/E/F/ CA- | %17
 A/G/F/G/ B,G- G/F/E/F/ A,F- | F/E/D/F/ _E/D/^C/D/ CD =E2- | EA, D2- D/G/F/G/ E/_B/A/G/ | %20
 A/D/=c- c/B/A/B/ A/G/^F/G/ DB- | B/A/G/A/ DG- G/F/E/F/ =B,E- | E/D/^C/D/- D/C/=B,/C/ D4 |] %23

